;FLAVOR:Marlin
;TIME:1211
;Filament used: 0.476737m
;Layer height: 0.2
;MINX:103.993
;MINY:96.519
;MINZ:0.2
;MAXX:131.159
;MAXY:138.478
;MAXZ:20
;Generated with Cura_SteamEngine 4.5.0
M140 S50
M105
M190 S50
M104 S200
M105
M109 S200
M82 ;absolute extrusion mode
; Ender 3 Custom Start G-code
G92 E0 ; Reset Extruder
G28 ; Home all axes
G1 Z2.0 F3000 ; Move Z Axis up little to prevent scratching of Heat Bed
G1 X0.1 Y20 Z0.3 F5000.0 ; Move to start position
G1 X0.1 Y200.0 Z0.3 F1500.0 E15 ; Draw the first line
G1 X0.4 Y200.0 Z0.3 F5000.0 ; Move to side a little
G1 X0.4 Y20 Z0.3 F1500.0 E30 ; Draw the second line
G92 E0 ; Reset Extruder
G1 Z2.0 F3000 ; Move Z Axis up little to prevent scratching of Heat Bed
G1 X5 Y20 Z0.3 F5000.0 ; Move over to prevent blob squish
G92 E0
G92 E0
G1 F2700 E-5
;LAYER_COUNT:100
;LAYER:0
M107
G0 F6000 X107.097 Y100.004 Z0.2
;TYPE:SKIRT
G1 F2700 E0
G1 F1200 X107.209 Y99.888 E0.00536
G1 X107.888 Y99.242 E0.03653
G1 X108.62 Y98.656 E0.06772
G1 X109.4 Y98.134 E0.09894
G1 X110.221 Y97.681 E0.13013
G1 X111.078 Y97.299 E0.16133
G1 X111.964 Y96.992 E0.19252
G1 X112.873 Y96.761 E0.22371
G1 X113.798 Y96.609 E0.25489
G1 X114.923 Y96.531 E0.2924
G1 X115.677 Y96.519 E0.31748
G1 X119.323 Y96.52 E0.43875
G1 X120.129 Y96.53 E0.46556
G1 X121.066 Y96.583 E0.49677
G1 X121.994 Y96.715 E0.52795
G1 X122.908 Y96.926 E0.55915
G1 X123.8 Y97.214 E0.59032
G1 X124.665 Y97.577 E0.62152
G1 X125.496 Y98.013 E0.65274
G1 X126.287 Y98.517 E0.68393
G1 X127.031 Y99.087 E0.71511
G1 X127.725 Y99.719 E0.74633
G1 X128.362 Y100.407 E0.77751
G1 X128.938 Y101.147 E0.8087
G1 X129.449 Y101.933 E0.83988
G1 X129.892 Y102.76 E0.87109
G1 X130.262 Y103.622 E0.90229
G1 X130.557 Y104.512 E0.93347
G1 X130.776 Y105.424 E0.96467
G1 X130.916 Y106.351 E0.99585
G1 X130.979 Y107.486 E1.03366
G1 X130.99 Y110.27 E1.12625
G1 X131 Y111.194 E1.15699
G1 X131 Y118.007 E1.38359
G1 X131.006 Y118.944 E1.41475
G1 X131 Y120.441 E1.46454
G1 X131.037 Y123.002 E1.54973
G1 X131.106 Y124.503 E1.59971
G1 X131.159 Y125.907 E1.64644
G1 X131.155 Y126.845 E1.67764
G1 X131.07 Y127.779 E1.70883
G1 X130.906 Y128.702 E1.74001
G1 X130.665 Y129.609 E1.77122
G1 X130.43 Y130.282 E1.79493
G1 X130.239 Y130.777 E1.81258
G1 X130.078 Y131.171 E1.82674
G1 X129.797 Y131.823 E1.85035
G1 X129.389 Y132.667 E1.88153
G1 X128.911 Y133.474 E1.91273
G1 X128.366 Y134.237 E1.94391
G1 X127.758 Y134.952 E1.97513
G1 X127.091 Y135.611 E2.00632
G1 X126.371 Y136.212 E2.03751
G1 X125.602 Y136.748 E2.06869
G1 X124.79 Y137.218 E2.09989
G1 X123.941 Y137.616 E2.13108
G1 X123.061 Y137.941 E2.16228
G1 X122.157 Y138.19 E2.19347
G1 X121.235 Y138.361 E2.22466
G1 X120.092 Y138.462 E2.26282
G1 X119.843 Y138.471 E2.27111
G1 X119.449 Y138.478 E2.28421
G1 X115.65 Y138.478 E2.41057
G1 X114.985 Y138.469 E2.43269
G1 X114.049 Y138.416 E2.46387
G1 X113.12 Y138.284 E2.49508
G1 X112.206 Y138.073 E2.52628
G1 X111.314 Y137.785 E2.55745
G1 X110.449 Y137.422 E2.58866
G1 X109.618 Y136.987 E2.61985
G1 X108.828 Y136.483 E2.65102
G1 X108.083 Y135.913 E2.68222
G1 X107.294 Y135.186 E2.7179
G1 X107.17 Y135.06 E2.72378
G1 X106.541 Y134.364 E2.75498
G1 X105.974 Y133.617 E2.78618
G1 X105.472 Y132.824 E2.81739
G1 X105.04 Y131.992 E2.84857
G1 X104.681 Y131.126 E2.87975
G1 X104.396 Y130.232 E2.91096
G1 X104.188 Y129.318 E2.94214
G1 X104.06 Y128.389 E2.97333
G1 X104.011 Y127.464 E3.00414
G1 X104.005 Y126.875 E3.02373
G1 X104.007 Y124.917 E3.08885
G1 X104 Y124.094 E3.11623
G1 X104 Y117.05 E3.35051
G1 X103.993 Y116.001 E3.3854
G1 X104.003 Y110.997 E3.55184
G1 X103.994 Y108.653 E3.6298
G1 X104.011 Y107.485 E3.66865
G1 X104.065 Y106.549 E3.69983
G1 X104.198 Y105.62 E3.73105
G1 X104.41 Y104.707 E3.76222
G1 X104.699 Y103.814 E3.79344
G1 X105.062 Y102.95 E3.82461
G1 X105.498 Y102.12 E3.85579
G1 X106.004 Y101.329 E3.88702
G1 X106.574 Y100.585 E3.9182
G1 X107.097 Y100.004 E3.9442
G0 F6000 X107.496 Y100.166
G1 F1200 X108.164 Y99.532 E3.97483
G1 X108.884 Y98.959 E4.00543
G1 X109.651 Y98.45 E4.03605
G1 X110.46 Y98.009 E4.0667
G1 X111.303 Y97.641 E4.09729
G1 X112.176 Y97.347 E4.12793
G1 X113.07 Y97.129 E4.15853
G1 X113.981 Y96.991 E4.18918
G1 X114.93 Y96.931 E4.22081
G1 X115.677 Y96.919 E4.24565
G1 X119.323 Y96.92 E4.36692
G1 X120.124 Y96.93 E4.39356
G1 X121.043 Y96.983 E4.42418
G1 X121.954 Y97.115 E4.4548
G1 X122.85 Y97.325 E4.48541
G1 X123.725 Y97.613 E4.51604
G1 X124.571 Y97.975 E4.54665
G1 X125.383 Y98.41 E4.57729
G1 X126.154 Y98.913 E4.60791
G1 X126.878 Y99.481 E4.63851
G1 X127.55 Y100.11 E4.66913
G1 X128.165 Y100.795 E4.69975
G1 X128.719 Y101.531 E4.73039
G1 X129.206 Y102.312 E4.761
G1 X129.624 Y103.133 E4.79164
G1 X129.969 Y103.986 E4.82224
G1 X130.239 Y104.866 E4.85286
G1 X130.431 Y105.767 E4.8835
G1 X130.545 Y106.68 E4.9141
G1 X130.579 Y107.487 E4.94097
G1 X130.59 Y110.271 E5.03356
G1 X130.6 Y111.194 E5.06426
G1 X130.6 Y118.007 E5.29087
G1 X130.606 Y118.943 E5.322
G1 X130.6 Y120.446 E5.37199
G1 X130.636 Y122.994 E5.45674
G1 X130.706 Y124.518 E5.50749
G1 X130.759 Y125.922 E5.55422
G1 X130.754 Y126.843 E5.58485
G1 X130.669 Y127.759 E5.61545
G1 X130.505 Y128.665 E5.64607
G1 X130.262 Y129.554 E5.67672
G1 X130.056 Y130.138 E5.69732
G1 X129.865 Y130.633 E5.71497
G1 X129.71 Y131.012 E5.72859
G1 X129.429 Y131.664 E5.7522
G1 X129.029 Y132.493 E5.78281
G1 X128.558 Y133.284 E5.81343
G1 X128.019 Y134.031 E5.84407
G1 X127.419 Y134.729 E5.87469
G1 X126.76 Y135.372 E5.90531
G1 X126.047 Y135.955 E5.93594
G1 X125.287 Y136.474 E5.96655
G1 X124.484 Y136.925 E5.99718
G1 X123.646 Y137.305 E6.02779
G1 X122.777 Y137.611 E6.05843
G1 X121.886 Y137.84 E6.08903
G1 X120.978 Y137.991 E6.11964
G1 X120.078 Y138.062 E6.14967
G1 X119.829 Y138.071 E6.15796
G1 X119.449 Y138.078 E6.1706
G1 X115.656 Y138.078 E6.29675
G1 X114.991 Y138.069 E6.31887
G1 X114.071 Y138.017 E6.34952
G1 X113.16 Y137.885 E6.38014
G1 X112.264 Y137.674 E6.41075
G1 X111.389 Y137.387 E6.44138
G1 X110.543 Y137.024 E6.472
G1 X109.731 Y136.59 E6.50262
G1 X108.96 Y136.087 E6.53324
G1 X108.236 Y135.518 E6.56387
G1 X107.579 Y134.905 E6.59376
G1 X107.455 Y134.779 E6.59964
G1 X106.838 Y134.096 E6.63025
G1 X106.283 Y133.361 E6.66088
G1 X105.794 Y132.581 E6.6915
G1 X105.374 Y131.762 E6.72211
G1 X105.027 Y130.909 E6.75274
G1 X104.756 Y130.029 E6.78337
G1 X104.561 Y129.129 E6.814
G1 X104.446 Y128.216 E6.8446
G1 X104.411 Y127.46 E6.86977
G1 X104.405 Y126.876 E6.8892
G1 X104.407 Y124.913 E6.95449
G1 X104.4 Y124.09 E6.98186
G1 X104.4 Y117.047 E7.21611
G1 X104.393 Y116.002 E7.25087
G1 X104.403 Y110.998 E7.41731
G1 X104.394 Y108.659 E7.4951
G1 X104.411 Y107.491 E7.53395
G1 X104.464 Y106.572 E7.56457
G1 X104.597 Y105.661 E7.59519
G1 X104.809 Y104.765 E7.62582
G1 X105.097 Y103.89 E7.65645
G1 X105.46 Y103.044 E7.68707
G1 X105.896 Y102.233 E7.7177
G1 X106.4 Y101.463 E7.74831
G1 X106.969 Y100.739 E7.77893
G1 X107.496 Y100.166 E7.80483
G0 F6000 X107.784 Y100.444
G1 F1200 X108.44 Y99.823 E7.83487
G1 X109.147 Y99.262 E7.86489
G1 X109.902 Y98.766 E7.89494
G1 X110.698 Y98.339 E7.92498
G1 X111.528 Y97.983 E7.95502
G1 X112.386 Y97.703 E7.98504
G1 X113.266 Y97.499 E8.01508
G1 X114.161 Y97.374 E8.04514
G1 X114.937 Y97.331 E8.07099
G1 X115.677 Y97.319 E8.0956
G1 X119.323 Y97.32 E8.21687
G1 X120.118 Y97.33 E8.24331
G1 X121.02 Y97.382 E8.27336
G1 X121.913 Y97.514 E8.30339
G1 X122.792 Y97.724 E8.33345
G1 X123.648 Y98.012 E8.36349
G1 X124.475 Y98.373 E8.3935
G1 X125.267 Y98.807 E8.42354
G1 X126.018 Y99.309 E8.45358
G1 X126.722 Y99.875 E8.48362
G1 X127.372 Y100.502 E8.51366
G1 X127.965 Y101.183 E8.5437
G1 X128.495 Y101.915 E8.57375
G1 X128.958 Y102.69 E8.60378
G1 X129.351 Y103.503 E8.63381
G1 X129.67 Y104.348 E8.66386
G1 X129.914 Y105.217 E8.69388
G1 X130.079 Y106.105 E8.72392
G1 X130.165 Y107.004 E8.75395
G1 X130.179 Y107.489 E8.77009
G1 X130.19 Y110.273 E8.86269
G1 X130.2 Y111.194 E8.89332
G1 X130.2 Y118.007 E9.11992
G1 X130.206 Y118.941 E9.15099
G1 X130.2 Y120.45 E9.20118
G1 X130.237 Y123.019 E9.28663
G1 X130.307 Y124.533 E9.33704
G1 X130.36 Y125.937 E9.38377
G1 X130.354 Y126.84 E9.41381
G1 X130.268 Y127.739 E9.44385
G1 X130.103 Y128.627 E9.47389
G1 X129.86 Y129.497 E9.50393
G1 X129.683 Y129.994 E9.52148
G1 X129.492 Y130.489 E9.53913
G1 X129.343 Y130.854 E9.55224
G1 X129.062 Y131.506 E9.57585
G1 X128.668 Y132.319 E9.6059
G1 X128.204 Y133.093 E9.63591
G1 X127.673 Y133.824 E9.66597
G1 X127.08 Y134.505 E9.696
G1 X126.429 Y135.131 E9.72604
G1 X125.725 Y135.696 E9.75606
G1 X124.973 Y136.197 E9.78612
G1 X124.18 Y136.63 E9.81617
G1 X123.353 Y136.991 E9.84618
G1 X122.496 Y137.277 E9.87623
G1 X121.617 Y137.486 E9.90628
G1 X120.724 Y137.617 E9.9363
G1 X120.063 Y137.662 E9.95833
G1 X119.814 Y137.671 E9.96662
G1 X119.449 Y137.678 E9.97876
G1 X115.661 Y137.678 E10.10475
G1 X114.996 Y137.669 E10.12687
G1 X114.094 Y137.617 E10.15692
G1 X113.201 Y137.485 E10.18695
G1 X112.323 Y137.275 E10.21697
G1 X111.466 Y136.988 E10.24703
G1 X110.639 Y136.626 E10.27706
G1 X109.847 Y136.193 E10.30708
G1 X109.096 Y135.691 E10.33713
G1 X108.392 Y135.124 E10.36719
G1 X107.864 Y134.625 E10.39135
G1 X107.74 Y134.499 E10.39723
G1 X107.136 Y133.827 E10.42729
G1 X106.593 Y133.106 E10.45731
G1 X106.116 Y132.338 E10.48738
G1 X105.71 Y131.532 E10.51739
G1 X105.376 Y130.693 E10.54743
G1 X105.117 Y129.828 E10.57746
G1 X104.936 Y128.943 E10.60751
G1 X104.834 Y128.046 E10.63753
G1 X104.811 Y127.455 E10.6572
G1 X104.805 Y126.876 E10.67646
G1 X104.807 Y124.91 E10.74185
G1 X104.8 Y124.087 E10.76923
G1 X104.8 Y117.044 E11.00348
G1 X104.793 Y116.003 E11.0381
G1 X104.803 Y110.999 E11.20454
G1 X104.794 Y108.665 E11.28216
G1 X104.811 Y107.497 E11.32102
G1 X104.864 Y106.595 E11.35107
G1 X104.997 Y105.702 E11.3811
G1 X105.208 Y104.824 E11.41113
G1 X105.496 Y103.968 E11.44117
G1 X105.859 Y103.141 E11.47121
G1 X106.293 Y102.349 E11.50125
G1 X106.795 Y101.598 E11.53129
G1 X107.362 Y100.896 E11.56131
G1 X107.784 Y100.444 E11.58187
G0 F6000 X115.2 Y107.719
G1 F1200 X119.8 Y107.72 E11.73487
G1 X119.8 Y107.942 E11.74225
G1 X118.482 Y108.492 E11.78975
G1 X118.388 Y108.574 E11.7939
G1 X118.363 Y108.638 E11.79619
G1 X118.285 Y109.029 E11.80945
G1 X118.3 Y109.153 E11.8136
G1 X118.34 Y109.209 E11.81589
G1 X119.8 Y110.669 E11.88457
G1 X119.8 Y112.311 E11.93918
G1 X115.2 Y112.311 E12.09218
G1 X115.2 Y110.661 E12.14706
G1 X116.667 Y109.195 E12.21604
G1 X116.724 Y109.084 E12.22019
G1 X116.722 Y109.015 E12.22248
G1 X116.644 Y108.624 E12.23574
G1 X116.583 Y108.515 E12.2399
G1 X116.525 Y108.478 E12.24219
G1 X115.2 Y107.924 E12.28995
G1 X115.2 Y107.719 E12.29677
G0 F6000 X116.697 Y108.119
G1 F1200 X118.336 Y108.12 E12.35128
G1 X118.145 Y108.242 E12.35882
G1 X118.017 Y108.419 E12.36609
G1 X117.971 Y108.56 E12.37102
G1 X117.893 Y108.951 E12.38428
G1 X117.89 Y109.169 E12.39153
G1 X117.965 Y109.374 E12.39879
G1 X118.057 Y109.492 E12.40377
G1 X119.4 Y110.835 E12.46694
G1 X119.4 Y111.911 E12.50273
G1 X115.6 Y111.911 E12.62912
G1 X115.6 Y110.827 E12.66517
G1 X116.95 Y109.478 E12.72865
G1 X117.074 Y109.299 E12.73589
G1 X117.125 Y109.087 E12.74314
G1 X117.114 Y108.937 E12.74814
G1 X117.036 Y108.546 E12.7614
G1 X116.956 Y108.343 E12.76866
G1 X116.808 Y108.183 E12.77591
G1 X116.697 Y108.119 E12.78017
G0 F6000 X117.439 Y108.519
G1 F1200 X117.57 Y108.52 E12.78453
G1 X117.505 Y108.847 E12.79562
G1 X117.439 Y108.519 E12.80675
G0 F6000 X117.502 Y109.272
G1 F1200 X117.548 Y109.429 E12.81219
G1 X117.774 Y109.775 E12.82593
G1 X119 Y111.001 E12.8836
G1 X119 Y111.511 E12.90056
G1 X116 Y111.511 E13.00034
G1 X116 Y110.993 E13.01757
G1 X117.233 Y109.761 E13.07555
G1 X117.402 Y109.536 E13.0849
G1 X117.502 Y109.272 E13.09429
G0 F6000 X117.496 Y110.063
G1 F1200 X118.544 Y111.111 E13.14359
G1 X116.448 Y111.111 E13.2133
G1 X117.496 Y110.063 E13.2626
G0 F6000 X117.496 Y110.629
G1 F1200 X117.578 Y110.711 E13.26645
G1 X117.414 Y110.711 E13.27191
G1 X117.496 Y110.629 E13.27577
G1 F2700 E8.27577
G0 F6000 X114.347 Y111.858
G0 X114.347 Y123.17
G0 X115.201 Y123.181
G0 X115.2 Y122.717
G1 F2700 E13.27577
G1 F1200 X119.8 Y122.716 E13.42876
G1 X119.8 Y124.507 E13.48833
G1 X119.643 Y124.664 E13.49572
G1 X119.588 Y124.766 E13.49957
G1 X119.51 Y125.156 E13.5128
G1 X119.521 Y125.271 E13.51664
G1 X119.96 Y126.334 E13.55489
G1 X119.568 Y127.28 E13.58895
G1 X115.203 Y127.279 E13.73413
G1 X115.285 Y124.766 E13.81776
G1 X115.28 Y124.716 E13.81943
G1 X115.2 Y124.349 E13.83192
G1 X115.2 Y122.717 E13.8862
G0 F6000 X115.6 Y123.117
G1 F1200 X119.4 Y123.116 E14.01259
G1 X119.4 Y124.341 E14.05334
G1 X119.36 Y124.381 E14.05522
G1 X119.236 Y124.56 E14.06246
G1 X119.196 Y124.687 E14.06689
G1 X119.118 Y125.077 E14.08012
G1 X119.114 Y125.295 E14.08737
G1 X119.151 Y125.424 E14.09183
G1 X119.527 Y126.335 E14.12461
G1 X119.302 Y126.88 E14.14422
G1 X115.616 Y126.879 E14.26682
G1 X115.685 Y124.779 E14.3367
G1 X115.671 Y124.631 E14.34165
G1 X115.6 Y124.305 E14.35274
G1 X115.6 Y123.117 E14.39226
G0 F6000 X116 Y123.517
G1 F1200 X119 Y123.516 E14.49204
G1 X119 Y124.201 E14.51482
G1 X118.908 Y124.324 E14.51993
G1 X118.803 Y124.609 E14.53003
G1 X118.725 Y124.999 E14.54326
G1 X118.71 Y125.281 E14.55265
G1 X118.782 Y125.577 E14.56279
G1 X119.095 Y126.334 E14.59003
G1 X119.034 Y126.48 E14.59529
G1 X116.029 Y126.479 E14.69524
G1 X116.084 Y124.792 E14.75138
G1 X116.062 Y124.546 E14.75959
G1 X116 Y124.262 E14.76926
G1 X116 Y123.517 E14.79404
G0 F6000 X116.4 Y123.917
G1 F1200 X118.6 Y123.916 E14.86721
G1 X118.6 Y124.063 E14.8721
G1 X118.411 Y124.53 E14.88886
G1 X118.333 Y124.92 E14.90209
G1 X118.307 Y125.253 E14.9132
G1 X118.412 Y125.73 E14.92944
G1 X118.557 Y126.08 E14.94204
G1 X116.442 Y126.079 E15.01239
G1 X116.484 Y124.805 E15.05478
G1 X116.453 Y124.461 E15.06627
G1 X116.4 Y124.218 E15.07454
G1 X116.4 Y123.917 E15.08456
G0 F6000 X116.831 Y124.317
G1 F1200 X118.058 Y124.316 E15.12537
G1 X118.019 Y124.452 E15.13007
G1 X117.941 Y124.842 E15.1433
G1 X117.906 Y125.219 E15.15589
G1 X117.951 Y125.596 E15.16852
G1 X117.978 Y125.68 E15.17146
G1 X116.856 Y125.679 E15.20877
G1 X116.884 Y124.818 E15.23743
G1 X116.844 Y124.376 E15.25219
G1 X116.831 Y124.317 E15.2542
G0 F6000 X117.274 Y124.717
G1 F1200 X117.559 Y124.716 E15.26368
G1 X117.506 Y125.18 E15.27921
G1 X117.515 Y125.28 E15.28255
G1 X117.269 Y125.279 E15.29073
G1 X117.284 Y124.831 E15.30564
G1 X117.274 Y124.717 E15.30944
G1 F2700 E10.30944
G0 F6000 X115.201 Y123.181
G0 X115.2 Y122.317
;TYPE:SUPPORT-INTERFACE
G1 F2700 E15.30944
G1 F1200 X115.2 Y119.221 E15.41242
G1 X119.8 Y119.22 E15.56541
G1 X119.8 Y122.316 E15.66839
G1 X115.2 Y122.317 E15.82138
G1 F2700 E10.82138
G0 F6000 X114.335 Y122.317
G0 X114.339 Y116.812
G0 X114.609 Y116.561
G0 X115.2 Y115.706
G1 F2700 E15.82138
G1 F1200 X115.2 Y112.711 E15.921
G1 X119.8 Y112.711 E16.074
G1 X119.8 Y115.705 E16.17358
G1 X115.2 Y115.706 E16.32657
G0 F6000 X115.505 Y115.505
G1 F1200 X115.399 Y115.399 E16.33156
G0 F6000 X115.4 Y115.399
G1 F1200 X117.888 Y112.911 E16.44859
G0 F6000 X116.305 Y112.911
G1 F1200 X118.899 Y115.505 E16.5706
G0 F6000 X118.688 Y115.505
G1 F1200 X119.599 Y114.594 E16.61345
G1 F2700 E11.61345
G0 F6000 X120.665 Y114.594
G0 X120.665 Y119.42
G0 X119.42 Y119.42
G1 F2700 E16.61345
G1 F1200 X119.6 Y119.6 E16.62192
G0 F6000 X118.168 Y119.419
G1 F1200 X115.471 Y122.115 E16.74875
G0 F6000 X116.026 Y119.42
G1 F1200 X118.721 Y122.115 E16.87552
G0 F6000 X118.866 Y122.115
G1 F1200 X119.599 Y121.382 E16.91
G1 F2700 E11.91
;MESH:tube90fill.stl
G0 F6000 X120.665 Y121.382
G0 X120.658 Y118.463
G0 X120.426 Y118.38
G0 X119.599 Y117.707
G0 X115.371 Y117.607
G0 X115.2 Y117.808
;TYPE:WALL-OUTER
G1 F2700 E16.91
G1 F1200 X115.2 Y117.169 E16.93125
G1 X119.8 Y117.168 E17.08425
G1 X119.8 Y117.807 E17.1055
G1 X115.2 Y117.808 E17.2585
G0 F6000 X115.513 Y117.493
;TYPE:SKIN
G1 F1200 X115.79 Y117.487 E17.26548
G1 X119.467 Y117.487 E17.35824
G0 F6000 X119.323 Y117.307
G1 F2700 E12.35824
;MESH:NONMESH
G0 F300 X119.323 Y117.307 Z0.4
G0 F6000 X119.322 Y117.369
G0 X115.314 Y117.283
G0 X114.609 Y116.561
G0 X114.342 Y116.463
G0 X114.347 Y111.858
G0 X115.2 Y107.719
;TIME_ELAPSED:37.502011
;LAYER:1
M140 S50
M106 S85
;TYPE:SUPPORT
G1 F2700 E17.35824
G1 F750.8 X119.8 Y107.72 E17.51124
G1 X119.8 Y107.942 E17.51862
G1 X118.384 Y108.533 E17.56965
G1 X118.264 Y109.134 E17.59004
G1 X119.8 Y110.669 E17.66226
